public/illustrations/_euro-icon.svg

<svg width="230" height="233" viewBox="0 0 230 233" fill="none" xmlns="http://www.w3.org/2000/svg">
<path d="M1.10556 75.1941C4.29126 60.809 11.6961 47.7266 22.1876 37.2634C36.8985 22.326 54.5969 12.5989 74.4615 6.49659C94.9066 0.365917 116.513 -1.48885 137.779 1.20129C155.576 3.19765 172.779 8.83278 188.269 18.0217C205.047 27.9044 218.384 41.2844 225.336 59.8746C232.118 77.856 230.589 95.4551 222.235 112.545C214.151 128.968 201.337 140.975 185.975 150.589C185.14 151.141 184.304 151.693 183.342 152.217C182.704 152.528 182.181 152.996 181.897 153.661C181.614 154.327 181.345 154.992 181.501 155.601C180.524 178.368 179.405 201.107 178.315 223.704C178.315 225.148 178.471 226.479 178.471 227.923C178.613 228.673 178.471 229.367 178.046 230.004C177.763 230.67 177.211 231.279 176.574 231.59C175.908 232.029 175.158 232.17 174.436 232.17C173.742 232.029 172.907 231.859 172.383 231.618C171.363 230.981 170.471 230.372 169.636 229.48C156.242 216.384 142.848 203.287 129.468 190.19C123.677 184.541 117.872 178.906 112.109 173.115C111.529 172.421 110.609 171.94 109.83 171.501C108.881 171.161 108.06 170.991 107.055 170.935C81.6541 170.142 57.726 164.167 36.304 150.022C23.0515 141.286 12.4608 130.045 5.86285 115.433C0.02948 102.846 -1.45719 88.6874 1.43118 75.1093L1.11956 75.1941H1.10556ZM169.693 217.644C170.032 215.973 170.174 215.279 170.032 214.529C170.811 197.793 171.746 180.931 172.553 164.053C172.836 160.5 172.836 156.889 172.708 153.25C172.468 148.72 172.751 148.054 176.97 145.732C192.332 137.563 204.849 126.363 213.287 111.03C221.726 95.6817 223.467 79.8665 217.691 63.3859C213.372 51.1104 205.67 41.3268 195.745 33.2564C181.883 21.8021 165.587 15.1901 148.157 11.3814C139.832 9.69653 131.393 8.57791 122.898 8.45048C96.7188 7.94077 72.0828 13.3777 49.344 26.5594C36.4172 34.0634 25.3593 43.8187 17.5296 56.8305C5.53718 76.9498 4.71601 97.4373 16.496 117.868C22.7825 128.954 31.9289 137.308 42.6895 144.09C62.1577 155.672 84.1742 161.845 106.771 162.213C108.824 162.043 110.764 162.439 112.662 163.105C114.545 163.77 116.187 164.974 117.49 166.39C130.601 179.43 143.881 192.371 157.162 205.297C161.155 209.134 165.006 212.943 169.721 217.502L169.693 217.644Z" fill="#102185"/>
<path d="M87.9264 102.364C89.1723 104.785 90.1351 106.428 91.1121 108.056C94.1562 112.997 98.3755 117.174 103.175 120.6C108.003 123.885 113.299 126.25 118.962 127.538C124.654 128.685 130.544 128.855 136.264 127.708C141.956 126.688 147.463 124.48 152.32 121.124C153.481 120.346 154.543 119.411 155.845 118.661C156.681 118.109 157.729 117.882 158.734 117.939C159.711 118.137 160.787 118.491 161.481 119.354C162.174 120.218 162.415 121.138 162.33 122.271C162.132 123.248 161.778 124.324 160.942 124.876C159.003 126.646 156.794 128.232 154.486 129.648C133.475 142.164 105.186 137.761 89.1156 119.354C85.2078 115.107 82.1637 110.151 79.9125 104.785C79.6577 103.865 79.1055 103.03 78.1994 102.562C77.4206 102.123 76.4579 101.925 75.5659 102.024C67.8777 102.208 60.1047 102.081 52.4307 102.123C48.537 102.067 46.2999 100.311 46.3849 97.7201C46.4415 95.2707 48.7777 93.7273 52.5297 93.7556C59.0569 93.6282 65.5557 93.6424 72.1961 93.6708C73.4987 93.6424 74.6738 93.5858 76.4154 93.515C76.4154 89.1825 76.4012 84.9915 76.4579 80.3758C73.4279 80.3475 70.5678 80.2059 67.5379 80.1634C64.3663 80.1068 61.1807 80.1777 57.8817 80.0927C56.8481 80.1777 55.8853 79.9793 54.7667 79.7527C53.7898 79.5545 52.8553 79.2289 52.2748 78.521C51.6943 77.813 51.312 76.8786 51.2271 75.8591C51.2837 74.8539 51.6519 73.7779 52.374 73.0558C53.0961 72.3337 54.0731 71.8099 55.0642 71.8665C55.8146 71.7249 56.5365 71.725 57.4002 71.7533C63.3185 71.7958 69.2511 71.6824 75.1411 71.8665C76.118 72.0647 77.1658 71.8381 78.0011 71.2859C78.8365 70.7337 79.4454 69.8418 79.6436 68.879C90.5174 41.468 121.709 30.7075 146.911 41.1282C148.525 41.737 149.97 42.4591 151.215 43.4361C151.966 44.0166 152.546 44.7103 152.801 45.6306C153.056 46.5509 153.028 47.4146 152.716 48.2075C152.249 49.1278 151.541 49.7083 150.72 50.2605C149.771 50.6427 148.894 50.7559 147.917 50.5577C146.416 50.1047 144.943 49.5242 143.612 48.972C126.551 42.6431 110.962 45.4183 97.3984 57.5663C94.3968 60.2848 92.2305 63.8952 89.8094 67.3075C89.0873 68.7516 88.521 70.0825 87.9405 71.555C89.4697 71.8665 90.6023 71.9514 91.7491 72.0364C104.888 72.0789 118.014 72.1354 131.011 72.1496C132.455 72.1496 133.871 72.2912 135.259 72.5744C136.094 72.7443 136.844 73.3249 137.567 74.047C138.147 74.7407 138.402 75.6611 138.501 76.5531C138.331 77.3884 138.161 78.2238 137.609 78.8326C137.057 79.4414 136.391 79.8802 135.471 80.1351C134.253 80.4607 132.923 80.6306 131.634 80.5174C118.056 80.5174 104.336 80.5174 90.7864 80.3758L88.0396 80.4042C85.4344 80.4608 85.0946 80.6732 84.868 83.2359C84.6981 85.5154 84.8114 87.8516 84.9106 90.1736C85.2079 93.6991 85.3211 93.869 88.79 93.8407C93.7031 93.8265 98.6162 93.7981 103.402 93.7556L135.33 93.6991C135.74 93.7841 136.052 93.6991 136.491 93.6424C137.652 93.5858 138.713 94.0954 139.436 94.8175C140.299 95.5679 140.823 96.545 140.908 97.5644C141.05 99.759 139.676 101.5 136.873 101.812C134.367 102.024 131.762 102.081 129.185 101.996C116.881 102.109 104.478 102.067 92.174 102.194C90.9846 102.392 89.6396 102.548 87.4592 102.69L87.9547 102.364H87.9264Z" fill="#102185"/>
</svg>

<svg xmlns="http://www.w3.org/2000/svg" width="230" height="233" fill="none" viewBox="0 0 230 233"><path fill="#102185" d="M1.106 75.194c3.185-14.385 10.59-27.467 21.082-37.93 14.71-14.938 32.409-24.665 52.274-30.767C94.907.366 116.513-1.49 137.779 1.2c17.797 1.997 35 7.632 50.49 16.82 16.778 9.883 30.115 23.263 37.067 41.854 6.782 17.981 5.253 35.58-3.101 52.67-8.084 16.423-20.898 28.43-36.26 38.044-.835.552-1.671 1.104-2.633 1.628-.638.311-1.161.779-1.445 1.444-.283.666-.552 1.331-.396 1.94-.977 22.767-2.096 45.506-3.186 68.103 0 1.444.156 2.775.156 4.219q.213 1.125-.425 2.081c-.283.666-.835 1.275-1.472 1.586-.666.439-1.416.58-2.138.58-.694-.141-1.529-.311-2.053-.552-1.02-.637-1.912-1.246-2.747-2.138a100186 100186 0 0 1-40.168-39.29c-5.791-5.649-11.596-11.284-17.359-17.075-.58-.694-1.5-1.175-2.279-1.614a9.3 9.3 0 0 0-2.775-.566c-25.4-.793-49.329-6.768-70.751-20.913-13.253-8.736-23.843-19.977-30.441-34.589-5.834-12.587-7.32-26.746-4.432-40.324l-.311.085zm168.587 142.45c.339-1.671.481-2.365.339-3.115.779-16.736 1.714-33.598 2.521-50.476.283-3.553.283-7.164.155-10.803-.24-4.53.043-5.196 4.262-7.518 15.362-8.169 27.879-19.369 36.317-34.702 8.439-15.348 10.18-31.163 4.404-47.644-4.319-12.276-12.021-22.06-21.946-30.13-13.862-11.454-30.158-18.066-47.588-21.875-8.325-1.684-16.764-2.803-25.259-2.93-26.18-.51-50.815 4.927-73.554 18.108-12.927 7.504-23.985 17.26-31.814 30.272C5.537 76.95 4.716 97.437 16.496 117.868c6.287 11.086 15.433 19.44 26.194 26.222 19.468 11.582 41.484 17.755 64.081 18.123 2.053-.17 3.993.226 5.891.892 1.883.665 3.525 1.869 4.828 3.285 13.111 13.04 26.391 25.981 39.672 38.907 3.993 3.837 7.844 7.646 12.559 12.205z"/><path fill="#102185" d="M87.926 102.364a92 92 0 0 0 3.186 5.692c3.044 4.941 7.264 9.118 12.063 12.544 4.828 3.285 10.124 5.65 15.787 6.938 5.692 1.147 11.582 1.317 17.302.17 5.692-1.02 11.199-3.228 16.056-6.584 1.161-.778 2.223-1.713 3.525-2.463.836-.552 1.884-.779 2.889-.722.977.198 2.053.552 2.747 1.415.693.864.934 1.784.849 2.917-.198.977-.552 2.053-1.388 2.605-1.939 1.77-4.148 3.356-6.456 4.772-21.011 12.516-49.3 8.113-65.37-10.294-3.908-4.247-6.952-9.203-9.204-14.569-.254-.92-.806-1.755-1.713-2.223a4.5 4.5 0 0 0-2.633-.538c-7.688.184-15.461.057-23.135.099-3.894-.056-6.131-1.812-6.046-4.403.056-2.45 2.393-3.993 6.145-3.964 6.527-.128 13.026-.114 19.666-.085 1.303-.029 2.478-.085 4.22-.156 0-4.332-.015-8.523.042-13.14-3.03-.028-5.89-.17-8.92-.212-3.172-.056-6.357.015-9.656-.07-1.034.085-1.997-.114-3.115-.34-.977-.198-1.912-.524-2.492-1.232s-.963-1.642-1.048-2.662c.057-1.005.425-2.081 1.147-2.803s1.7-1.246 2.69-1.19c.75-.141 1.472-.141 2.336-.113 5.919.043 11.851-.07 17.741.114.977.198 2.025-.029 2.86-.581a3.88 3.88 0 0 0 1.643-2.407c10.873-27.411 42.065-38.172 67.267-27.75 1.614.608 3.059 1.33 4.304 2.307.751.58 1.331 1.274 1.586 2.195s.227 1.784-.085 2.577c-.467.92-1.175 1.5-1.996 2.053-.949.382-1.826.495-2.803.297-1.501-.453-2.974-1.034-4.305-1.586-17.061-6.329-32.65-3.554-46.214 8.594-3.001 2.719-5.167 6.33-7.589 9.742-.722 1.444-1.288 2.774-1.868 4.247 1.529.311 2.661.396 3.808.481 13.139.043 26.265.1 39.262.114q2.166 0 4.248.424c.835.17 1.585.75 2.308 1.473.58.694.835 1.614.934 2.506-.17.835-.34 1.67-.892 2.28-.552.608-1.218 1.047-2.138 1.302-1.218.326-2.548.496-3.837.382-13.578 0-27.298 0-40.848-.141l-2.746.028c-2.606.057-2.945.27-3.172 2.832-.17 2.28-.057 4.616.043 6.938.297 3.525.41 3.695 3.879 3.667 4.913-.014 9.826-.043 14.612-.085l31.928-.057c.41.085.722 0 1.161-.057 1.161-.056 2.222.453 2.945 1.175.863.75 1.387 1.728 1.472 2.747.142 2.195-1.232 3.936-4.035 4.248a66 66 0 0 1-7.688.184c-12.304.113-24.707.071-37.011.198-1.19.198-2.534.354-4.715.496l.496-.326z"/></svg>
